places/16/folder-tag.svg

<?xml version="1.0" encoding="UTF-8" standalone="no"?>
<svg
   xmlns:dc="http://purl.org/dc/elements/1.1/"
   xmlns:cc="http://creativecommons.org/ns#"
   xmlns:rdf="http://www.w3.org/1999/02/22-rdf-syntax-ns#"
   xmlns:svg="http://www.w3.org/2000/svg"
   xmlns="http://www.w3.org/2000/svg"
   xmlns:xlink="http://www.w3.org/1999/xlink"
   xmlns:sodipodi="http://sodipodi.sourceforge.net/DTD/sodipodi-0.dtd"
   xmlns:inkscape="http://www.inkscape.org/namespaces/inkscape"
   version="1.1"
   width="16"
   height="16"
   id="svg3279"
   inkscape:version="0.91 r13725"
   sodipodi:docname="tag.svg">
  <sodipodi:namedview
     pagecolor="#ffffff"
     bordercolor="#666666"
     borderopacity="1"
     objecttolerance="10"
     gridtolerance="10"
     guidetolerance="10"
     inkscape:pageopacity="0"
     inkscape:pageshadow="2"
     inkscape:window-width="1440"
     inkscape:window-height="844"
     id="namedview19"
     showgrid="false"
     inkscape:zoom="32"
     inkscape:cx="8.2992289"
     inkscape:cy="5.9166346"
     inkscape:window-x="0"
     inkscape:window-y="30"
     inkscape:window-maximized="1"
     inkscape:current-layer="svg3279" />
  <defs
     id="defs3281">
    <linearGradient
       id="linearGradient4261">
      <stop
         id="stop4263"
         style="stop-color:#ffffff;stop-opacity:1"
         offset="0" />
      <stop
         id="stop4265"
         style="stop-color:#ffffff;stop-opacity:0.23529412"
         offset="0.0330098" />
      <stop
         id="stop4267"
         style="stop-color:#ffffff;stop-opacity:0.15686275"
         offset="0.49855825" />
      <stop
         id="stop4269"
         style="stop-color:#ffffff;stop-opacity:0.39215687"
         offset="1" />
    </linearGradient>
    <linearGradient
       id="linearGradient4208">
      <stop
         offset="0"
         style="stop-color:#ffffff;stop-opacity:1"
         id="stop4210" />
      <stop
         offset="0.10757249"
         style="stop-color:#ffffff;stop-opacity:0.23529412"
         id="stop4212" />
      <stop
         offset="0.99999994"
         style="stop-color:#ffffff;stop-opacity:0.15686275"
         id="stop4214" />
      <stop
         offset="1"
         style="stop-color:#ffffff;stop-opacity:0.39215687"
         id="stop4216" />
    </linearGradient>
    <linearGradient
       id="linearGradient4198">
      <stop
         offset="0"
         style="stop-color:#ffffff;stop-opacity:1"
         id="stop4200" />
      <stop
         offset="0.10280169"
         style="stop-color:#ffffff;stop-opacity:0.23529412"
         id="stop4202" />
      <stop
         offset="0.99999994"
         style="stop-color:#ffffff;stop-opacity:0.15686275"
         id="stop4204" />
      <stop
         offset="1"
         style="stop-color:#ffffff;stop-opacity:0.39215687"
         id="stop4206" />
    </linearGradient>
    <linearGradient
       id="linearGradient4222">
      <stop
         id="stop4224"
         style="stop-color:#ffffff;stop-opacity:1"
         offset="0" />
      <stop
         id="stop4226"
         style="stop-color:#ffffff;stop-opacity:0"
         offset="1" />
    </linearGradient>
    <linearGradient
       id="linearGradient3243">
      <stop
         id="stop3245"
         style="stop-color:#fff4e9;stop-opacity:1"
         offset="0" />
      <stop
         id="stop3247"
         style="stop-color:#e7d6c5;stop-opacity:1"
         offset="1" />
    </linearGradient>
    <linearGradient
       x1="40.006763"
       y1="11.78156"
       x2="40.006763"
       y2="10.518054"
       id="linearGradient3029"
       xlink:href="#linearGradient4222"
       gradientUnits="userSpaceOnUse"
       gradientTransform="matrix(0.82996661,0,0,0.83014725,-23.704279,-2.8028554)" />
    <linearGradient
       x1="41.050556"
       y1="6.9669371"
       x2="41.050556"
       y2="20.055338"
       id="linearGradient3032"
       xlink:href="#linearGradient4261"
       gradientUnits="userSpaceOnUse"
       gradientTransform="matrix(0.63241105,0,0,0.63366331,-16.06917,-0.5594047)" />
    <linearGradient
       x1="39.905758"
       y1="6.1230369"
       x2="39.905758"
       y2="24.0341"
       id="linearGradient3035"
       xlink:href="#linearGradient3243"
       gradientUnits="userSpaceOnUse"
       gradientTransform="matrix(0.6666711,0,0,0.6666711,-17.166785,-1.1667711)" />
    <linearGradient
       id="linearGradient4227">
      <stop
         id="stop4229"
         style="stop-color:#ffffff;stop-opacity:1"
         offset="0" />
      <stop
         id="stop4231"
         style="stop-color:#ffffff;stop-opacity:0.23529412"
         offset="0.48086992" />
      <stop
         id="stop4233"
         style="stop-color:#ffffff;stop-opacity:0.15686275"
         offset="0.99999994" />
      <stop
         id="stop4235"
         style="stop-color:#ffffff;stop-opacity:0.39215687"
         offset="1" />
    </linearGradient>
    <linearGradient
       id="linearGradient4216">
      <stop
         id="stop4218"
         style="stop-color:#ffffff;stop-opacity:1"
         offset="0" />
      <stop
         id="stop4220"
         style="stop-color:#ffffff;stop-opacity:0.23529412"
         offset="0.00022913" />
      <stop
         id="stop4222"
         style="stop-color:#ffffff;stop-opacity:0.15686275"
         offset="0.99999994" />
      <stop
         id="stop4224-2"
         style="stop-color:#ffffff;stop-opacity:0.39215687"
         offset="1" />
    </linearGradient>
    <linearGradient
       id="linearGradient3846">
      <stop
         id="stop3848"
         style="stop-color:#fff3cb;stop-opacity:1"
         offset="0" />
      <stop
         id="stop3850"
         style="stop-color:#fdde76;stop-opacity:1"
         offset="0.26238" />
      <stop
         id="stop3852"
         style="stop-color:#f9c440;stop-opacity:1"
         offset="0.66093999" />
      <stop
         id="stop3854"
         style="stop-color:#e48b20;stop-opacity:1"
         offset="1" />
    </linearGradient>
    <linearGradient
       gradientTransform="matrix(0.47140766,0.47021236,-0.47140766,0.47021236,-3.7563278,-16.01012)"
       gradientUnits="userSpaceOnUse"
       xlink:href="#linearGradient3846"
       id="linearGradient3275"
       y2="25.041828"
       x2="49.414146"
       y1="2.7114925"
       x1="27.083811" />
    <linearGradient
       gradientTransform="matrix(0.44718214,0.44718214,-0.44806762,0.44806762,-3.4096697,-14.874441)"
       gradientUnits="userSpaceOnUse"
       xlink:href="#linearGradient4227"
       id="linearGradient2869-8"
       y2="15.67687"
       x2="42.153168"
       y1="7.8655486"
       x1="34.326378" />
    <linearGradient
       gradientTransform="matrix(0,-0.39447799,0.42344634,0,-0.3656134,18.346218)"
       gradientUnits="userSpaceOnUse"
       xlink:href="#linearGradient4087-5"
       id="linearGradient3842"
       y2="15.991243"
       x2="20.576487"
       y1="15.991243"
       x1="38.940514" />
    <linearGradient
       id="linearGradient4087-5">
      <stop
         offset="0"
         style="stop-color:#ffffff;stop-opacity:1"
         id="stop4089-8" />
      <stop
         offset="0.51153916"
         style="stop-color:#ffffff;stop-opacity:0.23529412"
         id="stop4091-2" />
      <stop
         offset="0.58522105"
         style="stop-color:#ffffff;stop-opacity:0.15686275"
         id="stop4093-6" />
      <stop
         offset="1"
         style="stop-color:#ffffff;stop-opacity:0.39215687"
         id="stop4095-0" />
    </linearGradient>
    <linearGradient
       id="linearGradient2867-449-88-871-390-598-476-591-434-148-57-177">
      <stop
         offset="0"
         style="stop-color:#90dbec;stop-opacity:1"
         id="stop3750" />
      <stop
         offset="0.26238"
         style="stop-color:#55c1ec;stop-opacity:1"
         id="stop3752" />
      <stop
         offset="0.704952"
         style="stop-color:#3689e6;stop-opacity:1"
         id="stop3754" />
      <stop
         offset="1"
         style="stop-color:#2b63a0;stop-opacity:1"
         id="stop3756" />
    </linearGradient>
    <linearGradient
       id="linearGradient3707-319-631-407-324">
      <stop
         offset="0"
         style="stop-color:#185f9a;stop-opacity:1"
         id="stop3760" />
      <stop
         offset="1"
         style="stop-color:#599ec9;stop-opacity:1"
         id="stop3762" />
    </linearGradient>
    <linearGradient
       gradientTransform="matrix(0.36132509,0,0,0.33660657,-1.0097844,0.1354293)"
       gradientUnits="userSpaceOnUse"
       xlink:href="#linearGradient2867-449-88-871-390-598-476-591-434-148-57-177"
       id="linearGradient3852"
       y2="33.875889"
       x2="23.731871"
       y1="4.4175272"
       x1="23.731871" />
    <linearGradient
       gradientTransform="matrix(0.36132509,0,0,0.33660657,-1.0097844,0.1354293)"
       gradientUnits="userSpaceOnUse"
       xlink:href="#linearGradient3707-319-631-407-324"
       id="linearGradient3854"
       y2="4.0044417"
       x2="35.998066"
       y1="37.038586"
       x1="35.998066" />
  </defs>
  <metadata
     id="metadata3284">
    <rdf:RDF>
      <cc:Work
         rdf:about="">
        <dc:format>image/svg+xml</dc:format>
        <dc:type
           rdf:resource="http://purl.org/dc/dcmitype/StillImage" />
        <dc:title />
      </cc:Work>
    </rdf:RDF>
  </metadata>
  <path
     d="M 6.8333755,2.4999192 0.50000006,9.0624632 6.0000368,14.5 12.500078,8.1666242 l 0,-5.666705 -5.6667025,0 z m 2.6666849,2.000014 c 0.5520026,0 1.0000066,0.448002 1.0000066,1.000006 0,0.552004 -0.448004,1.000007 -1.0000066,1.000007 -0.5520042,0 -1.0000072,-0.448003 -1.0000072,-1.000007 0,-0.552004 0.448003,-1.000006 1.0000072,-1.000006 z"
     id="path2463"
     style="fill:url(#linearGradient3035);fill-opacity:1;fill-rule:evenodd;stroke:none" />
  <path
     d="m 7.3435443,3.5000004 c 0,0 -5.4055851,5.4975779 -5.4055851,5.4975779 0,0 4.1443391,4.3564347 4.1443391,4.3564347 0,0 5.3593077,-5.5623316 5.3593077,-5.5623316 0,0 0.05839,-4.291681 0.05839,-4.291681 0,0 -4.1564557,0 -4.1564557,0 z"
     id="path3265"
     style="opacity:0.7;fill:none;stroke:url(#linearGradient3032);stroke-width:1.00000012px;stroke-linecap:butt;stroke-linejoin:miter;stroke-opacity:1" />
  <path
     d="M 9.4943871,3.5010736 C 10.750366,3.4567938 11.785978,4.7909532 11.428498,5.9971782 11.163042,7.1808175 9.7058904,7.86295 8.6294138,7.298845 7.5214098,6.8093158 7.1351849,5.250799 7.8946109,4.3042992 8.263526,3.8049752 8.8728487,3.4962646 9.4943871,3.5010736 z"
     id="path3294"
     style="opacity:0.6;fill:none;stroke:url(#linearGradient3029);stroke-width:1.00000012px;stroke-linecap:butt;stroke-linejoin:miter;stroke-opacity:1" />
  <path
     d="m 10.333402,4.9995634 c 0.73935,-0.391482 1.702694,-0.511416 2.617932,-0.53183 0.411434,-0.0092 0.8273,0.0746 1.231029,-0.02143 0.513831,-0.122222 0.863993,-0.498679 0.812771,-0.842839 -0.06877,-0.461979 -0.68935,-0.803021 -1.271382,-1.047072 -0.516276,-0.216476 -0.913636,-0.6022352 -1.123633,-1.0097466 -0.106098,-0.20589 0.07919,-0.4220767 0.376399,-0.4884432 0.269998,-0.060291 0.552791,-0.084123 0.827535,-0.022904 0.418164,0.093175 0.911794,0.2068481 1.106321,0.5031098"
     id="path3298"
     style="opacity:0.5;color:#000000;fill:none;stroke:#5d3c1e;stroke-width:1.00000012px;stroke-linecap:butt;stroke-linejoin:miter;stroke-miterlimit:4;stroke-opacity:1;stroke-dasharray:none;stroke-dashoffset:0;marker:none;visibility:visible;display:inline;overflow:visible;enable-background:accumulate" />
  <path
     d="M 6.8333755,2.4999191 0.50000006,9.0624631 6.0000368,14.5 12.500078,8.1666241 l 0,-5.666705 -5.6667025,0 z m 2.6666849,2.000014 c 0.5520026,0 1.0000066,0.448002 1.0000066,1.000006 0,0.552004 -0.448004,1.000007 -1.0000066,1.000007 -0.5520042,0 -1.0000072,-0.448003 -1.0000072,-1.000007 0,-0.552004 0.448003,-1.000006 1.0000072,-1.000006 z"
     id="path2463-3"
     style="opacity:0.5;fill:none;stroke:#5c432c;stroke-width:1.00000012px;stroke-linecap:butt;stroke-linejoin:miter;stroke-opacity:1" />
</svg>

<svg xmlns="http://www.w3.org/2000/svg" xmlns:xlink="http://www.w3.org/1999/xlink" viewBox="0 0 16 16"><defs><linearGradient id="b"><stop offset="0" stop-color="#fff"/><stop offset=".033" stop-color="#fff" stop-opacity=".235"/><stop offset=".499" stop-color="#fff" stop-opacity=".157"/><stop offset="1" stop-color="#fff" stop-opacity=".392"/></linearGradient><linearGradient id="a"><stop offset="0" stop-color="#fff"/><stop offset="1" stop-color="#fff" stop-opacity="0"/></linearGradient><linearGradient id="c"><stop offset="0" stop-color="#fff4e9"/><stop offset="1" stop-color="#e7d6c5"/></linearGradient><linearGradient x1="40.007" y1="11.782" x2="40.007" y2="10.518" id="f" xlink:href="#a" gradientUnits="userSpaceOnUse" gradientTransform="matrix(.82997 0 0 .83015 -23.704 -2.803)"/><linearGradient x1="41.051" y1="6.967" x2="41.051" y2="20.055" id="e" xlink:href="#b" gradientUnits="userSpaceOnUse" gradientTransform="matrix(.6324 0 0 .63366 -16.07 -.56)"/><linearGradient x1="39.906" y1="6.123" x2="39.906" y2="24.034" id="d" xlink:href="#c" gradientUnits="userSpaceOnUse" gradientTransform="translate(-17.167 -1.167) scale(.66667)"/></defs><path d="M6.833 2.5L.5 9.062 6 14.5l6.5-6.333V2.5H6.833zm2.667 2a1 1 0 1 1 0 2 1 1 0 0 1 0-2z" fill="url(#d)" fill-rule="evenodd"/><path d="M7.344 3.5L1.938 8.998l4.144 4.356 5.36-5.562L11.5 3.5H7.344z" opacity=".7" fill="none" stroke="url(#e)"/><path d="M9.494 3.5c1.256-.043 2.292 1.29 1.934 2.497-.265 1.184-1.722 1.866-2.8 1.302-1.108-.49-1.493-2.05-.733-3a2 2 0 0 1 1.6-.804z" opacity=".6" fill="none" stroke="url(#f)"/><path d="M10.333 5c.74-.392 1.703-.512 2.618-.532.417-.01.83.074 1.236-.022.514-.122.864-.498.813-.843-.07-.462-.69-.803-1.27-1.047a2.253 2.253 0 0 1-1.126-1.01c-.105-.205.08-.42.378-.488.27-.06.553-.084.828-.023.418.093.912.207 1.106.503" opacity=".5" color="#000" fill="none" stroke="#5d3c1e" overflow="visible"/><path d="M6.833 2.5L.5 9.062 6 14.5l6.5-6.333V2.5H6.833zm2.667 2a1 1 0 1 1 0 2 1 1 0 0 1 0-2z" opacity=".5" fill="none" stroke="#5c432c"/></svg>
